X:1
T:Morelos, 77.77.77
T:Morelos, 77.77.77
T:Ira David Sankey, 1902
T:Public Domain Courtesy of the Cyber Hymnal™
C:Ira David Sankey, 1902
Z:Public Domain
Z:Courtesy of the Cyber Hymnal™
%%score ( 1 2 ) ( 3 4 )
L:1/8
Q:1/4=140
M:3/4
K:G
V:1 treble 
V:2 treble 
V:3 bass 
V:4 bass 
V:1
 D4 [DG]2 | [Gc]4 [GB]2 | [GB]4 [FA]2 | G6 | [Gc]4 [GB]2 | [Ge]4 [Gd]2 | [Gd]4 [G^c]2 | [Fd]6 | %8
 G4 [GB]2 | [Gd]4 [DB]2 | [DB]4 [FA]2 | G6 | (G2 c2) [Ge]2 | [Gd]4 [DB]2 | B4 [FA]2 | G6 | %16
 [Fd]4 [FA]2 | [Fd]4 [Fe]2 | [Gd]4 [Gd]2 | [GB]6 | (c2 d2) [Ge]2 | (d2 B2) G2 | B4 [FA]2 | G6 |] %24
V:2
 D4 x2 | x6 | x6 | G6 | x6 | x6 | x6 | x6 | G4 x2 | x6 | x6 | G6 | E4 x2 | x6 | (D2 E2) x2 | G6 | %16
 x6 | x6 | x6 | x6 | G4 x2 | G4 x2 | (G2 D2) x2 | G6 |] %24
V:3
 [G,B,]4 [G,B,]2 | [G,E]4 [G,D]2 | [D,D]4 [D,C]2 | [G,B,]6 | [E,C]4 [G,D]2 | C4 [B,D]2 | %6
 [A,E]4 [A,E]2 | (D4 C2) | [G,B,]4 [G,D]2 | [G,B,]4 [G,,G,]2 | [D,G,]4 [D,C]2 | [E,B,]6 | %12
 [C,C]4 [C,C]2 | [G,B,]4 G,2 | [D,D]4 [D,C]2 | [G,B,]6 | [D,A,]4 [D,D]2 | [D,A,]4 [D,C]2 | %18
 [G,B,]4 [G,B,]2 | [G,D]6 | ([E,C]2 [D,B,]2) [C,C]2 | (B,2 D2) [B,,D]2 | [D,D]4 [D,C]2 | %23
 [G,,B,]6 |] %24
V:4
 x6 | x6 | x6 | x6 | x6 | C4 x2 | x6 | D,6 | x6 | x6 | x6 | x6 | x6 | x4 G,2 | x6 | x6 | x6 | x6 | %18
 x6 | x6 | x6 | G,4 x2 | x6 | x6 |] %24

